X: 1
T: The Abbey
R: reel
M: 4/4
L: 1/8
K: Ador
|: B | A3B A2GE | A2GA BddB | A3B AGEF | G3A Bdd :|
| g | egg2 a2ba | gabg aged | egg2 a2ga | bgaf gedg |
egg2 a2bg | agbg aged | egg2 a2ga | bgaf ged |


Tune 477	Setting 24049

